ix/gameboy_linear.svg

<svg viewBox="0 0 24 24" fill="none" xmlns="http://www.w3.org/2000/svg" height="1em" width="1em">
  <path d="M21 7v10c0 3-1.5 5-5 5H8c-3.5 0-5-2-5-5V7c0-3 1.5-5 5-5h8c3.5 0 5 2 5 5Z" stroke="#292D32" stroke-width="1.5" stroke-miterlimit="10" stroke-linecap="round" stroke-linejoin="round"/>
  <path d="M16.25 11h-8.5C6.79 11 6 10.21 6 9.25v-2.5C6 5.79 6.79 5 7.75 5h8.5c.96 0 1.75.79 1.75 1.75v2.5c0 .96-.79 1.75-1.75 1.75Zm-5.95 4.28L8 17.58m.03-2.27 2.3 2.3" stroke="#292D32" stroke-width="1.5" stroke-miterlimit="10" stroke-linecap="round" stroke-linejoin="round"/>
  <path d="M16.49 15.33h.02m-2.02 2.17v-.02" stroke="#292D32" stroke-width="2" stroke-miterlimit="10" stroke-linecap="round" stroke-linejoin="round"/>
</svg>

<svg viewBox="0 0 24 24" fill="none" xmlns="http://www.w3.org/2000/svg" height="1em" width="1em">
  <path d="M21 7V17C21 20 19.5 22 16 22H8C4.5 22 3 20 3 17V7C3 4 4.5 2 8 2H16C19.5 2 21 4 21 7Z" stroke="#292D32" stroke-width="1.5" stroke-miterlimit="10" stroke-linecap="round" stroke-linejoin="round"/>
  <path d="M16.25 11H7.75C6.79 11 6 10.21 6 9.25V6.75C6 5.79 6.79 5 7.75 5H16.25C17.21 5 18 5.79 18 6.75V9.25C18 10.21 17.21 11 16.25 11Z" stroke="#292D32" stroke-width="1.5" stroke-miterlimit="10" stroke-linecap="round" stroke-linejoin="round"/>
  <path d="M10.3 15.28L8 17.58" stroke="#292D32" stroke-width="1.5" stroke-miterlimit="10" stroke-linecap="round" stroke-linejoin="round"/>
  <path d="M8.03003 15.3101L10.33 17.61" stroke="#292D32" stroke-width="1.5" stroke-miterlimit="10" stroke-linecap="round" stroke-linejoin="round"/>
  <path d="M16.49 15.3301H16.51" stroke="#292D32" stroke-width="2" stroke-miterlimit="10" stroke-linecap="round" stroke-linejoin="round"/>
  <path d="M14.49 17.5V17.48" stroke="#292D32" stroke-width="2" stroke-miterlimit="10" stroke-linecap="round" stroke-linejoin="round"/>
</svg>
